X:1
T:Bonaparte Crossing the Rhine
M:4/4
L:1/8
K:D
 F2 G2| "D"A3B A2 F2 | A4 "A7"d2 e2 | "D"f3e "A7"f2 a2 |"D" d4 d2 c2 | "G"B3 c d2 B2|"D"A2 F2E2 D2 | "A7"(E8 | E4) F2 G2 |
"D"A3B A2 F2 | A4 "A7"d2 e2 | "D"f3e f2 a2 | d4 d2 c2 |"G"B3 c d2 B2 | "A7"A2 F2 E2 F2 | "D"(D8 | D4)  "A7"d2 e2 ||
"D"f3 e "A"f2 g2|"D"a4 d2c2|"G"B3A "A7"B2 c2 |"D"d4 d2 c2 |"G"B3 c d2 B2 | "D"A2 F2 E2 D2 | "A7"(E8 | E4) F2 G2  |
"D"A3B A2 F2 | A4 "A7"d2 e2 | "D"f3e f2 a2 |"Bm" d4 d2 c2 |"G"B3 c d2 B2 | "A7"A2 F2 E2 F2 | "D"(D8 | D8) ||
